X:1
T:Weel May the Keel Row -- Reel
R:reel
B:Ryan's Mammoth Collection
N: 356
N:[Original Version.]
O:SCOTCH
Z: Contributed by Ray Davies,  ray:davies99.freeserve.co.uk
M:C|
L:1/8
K:D
ua|\
vfddf g2(ea) | f2(df) e2ce | fd d/d/d g2eg | fd"4"ec d2(da) |
 fddf g2(ea) | f2(df) e2ce | fd d/d/d g2eg | fd"4"ec d2 d |]
ug|\
vfa"1"a"4"d' "2"b2"2"(gb) | {g}f2df e2ce |\
 fa"1"a"4"d' "2"b2"2"(gb) | fd"4"ec d2(dg) |
 fa"1"a"4"d' "2"b2"2"(gb) | {g}f2df e2ce |\
 fa"1"a"4"d' "2"b2"2"(gb) | fd"4"ec d2 d |]
